!!!!SEGMENT: Snf0320-O_sacrum_convivium_II.krn
!!!id: Snf0320
!!!AGN: Motet
!!!voices: 5
!!!COM: Ludwig Senfl
!!!OTL: O sacrum convivium II
**kern	**text	**kern	**text	**kern	**text	**kern	**text	**kern	**text
*part5	*part5	*part4	*part4	*part3	*part3	*part2	*part2	*part1	*part1
*staff5	*staff5	*staff4	*staff4	*staff3	*staff3	*staff2	*staff2	*staff1	*staff1
*I"Bassus	*	*I"Tenor II	*	*I"Tenor I	*	*I"Altus	*	*I"Superius	*
*I'B	*	*I'T. II	*	*I'T. I	*	*I'A	*	*I'S	*
*clefF4	*	*clefF4	*	*clefGv2	*	*clefGv2	*	*clefG2	*
*k[b-]	*	*k[b-]	*	*k[b-]	*	*k[b-]	*	*k[b-]	*
*F:	*	*F:	*	*F:	*	*F:	*	*F:	*
*M2/1	*	*M2/1	*	*M2/1	*	*M2/1	*	*M2/1	*
*met(C|)	*	*met(C|)	*	*met(C|)	*	*met(C|)	*	*met(C|)	*
!!section: Prima pars: O sacrum convivium
!!!OMD: Prima pars: O sacrum convivium
=1	=1	=1	=1	=1	=1	=1	=1	=1	=1
0r	.	0r	.	0r	.	1f	O	0f	O
.	.	.	.	.	.	1a	.	.	.
=2	=2	=2	=2	=2	=2	=2	=2	=2	=2
0r	.	0r	.	0r	.	2.cc	sa-	[0a	.
.	.	.	.	.	.	4b-y	.	.	.
.	.	.	.	.	.	2.a	.	.	.
.	.	.	.	.	.	4g	.	.	.
=3	=3	=3	=3	=3	=3	=3	=3	=3	=3
0r	.	0r	.	0r	.	2f	.	0a]	.
.	.	.	.	.	.	2e	.	.	.
.	.	.	.	.	.	1d	.	.	.
=4	=4	=4	=4	=4	=4	=4	=4	=4	=4
0r	.	0r	.	0r	.	2c	-crum	0cc	sa-
.	.	.	.	.	.	2f	con-	.	.
.	.	.	.	.	.	2e	-vi-	.	.
.	.	.	.	.	.	[2f	.	.	.
=5	=5	=5	=5	=5	=5	=5	=5	=5	=5
0r	.	0r	.	0r	.	2f]	.	0dd	.
.	.	.	.	.	.	4e	.	.	.
.	.	.	.	.	.	4d	.	.	.
.	.	.	.	.	.	2f	.	.	.
.	.	.	.	.	.	2g	-vi-	.	.
=6	=6	=6	=6	=6	=6	=6	=6	=6	=6
0r	.	1F	O	[0F	O	1a	-um,	[0cc	-crum
.	.	1A	.	.	.	2r	.	.	.
.	.	.	.	.	.	2f	[o	.	.
=7	=7	=7	=7	=7	=7	=7	=7	=7	=7
0r	.	2.c	sa-	0F]	.	1a	.	1cc]	.
.	.	4B-y	.	.	.	.	.	.	.
.	.	2.A	.	.	.	2.cc	sa-	2r	.
.	.	.	.	.	.	.	.	2cc	con-
.	.	4G	.	.	.	4b-y	.	.	.
=8	=8	=8	=8	=8	=8	=8	=8	=8	=8
0r	.	2F	.	0A	.	2a	.	2dd	-vi-
.	.	2E	.	.	.	2g	.	2ee	.
.	.	1D	.	.	.	1f	-crum,]	1ff	.
=9	=9	=9	=9	=9	=9	=9	=9	=9	=9
0r	.	0C	-crum	0c	sa-	2r	.	4ee	.
.	.	.	.	.	.	.	.	4dd	.
.	.	.	.	.	.	2c	[o	4cc	.
.	.	.	.	.	.	.	.	4b-y	.
.	.	.	.	.	.	1e	sa-	4a	.
.	.	.	.	.	.	.	.	4g	.
.	.	.	.	.	.	.	.	[2cc	.
=10	=10	=10	=10	=10	=10	=10	=10	=10	=10
0r	.	0G	con-	0d	.	0g	-crum,	2cc]	.
.	.	.	.	.	.	.	.	4bnXi	.
.	.	.	.	.	.	.	.	4a	.
.	.	.	.	.	.	.	.	1bni	-vi-
=11	=11	=11	=11	=11	=11	=11	=11	=11	=11
1F	O	1.A	-vi-	0c	-crum	2f	o	[0cc	-um,
.	.	.	.	.	.	2a	.	.	.
1A	.	.	.	.	.	2.cc	sa-	.	.
.	.	2F	-vi-	.	.	.	.	.	.
.	.	.	.	.	.	4b-y	.	.	.
=12	=12	=12	=12	=12	=12	=12	=12	=12	=12
2.c	sa-	1F	-um,	1r	.	2.a	.	0cc]	.
4B-y	-crum	.	.	.	.	4g	.	.	.
2.A	.	1r	.	1c	con-	2f	.	.	.
.	.	.	.	.	.	2e	.	.	.
4G	.	.	.	.	.	.	.	.	.
=13	=13	=13	=13	=13	=13	=13	=13	=13	=13
2F	con-	1r	.	2d	-vi-	2d	.	0r	.
2E	-vi-	.	.	2e	.	1c	-crum	.	.
1D	-vi-	2r	.	1f	.	.	.	.	.
.	.	2F	[o	.	.	2BnXi	con-	.	.
=14	=14	=14	=14	=14	=14	=14	=14	=14	=14
1C	-um,	2G	.	2.e	.	2.c	-vi-	1r	.
.	.	2.c	sa-	.	.	.	.	.	.
.	.	.	.	4d	.	4B-y	.	.	.
1r	.	.	.	4e	.	4A	.	1cc	[o
.	.	4B-y	.	4c	.	4G	.	.	.
.	.	4A	.	4f	.	[2A	.	.	.
.	.	4G	.	4e	.	.	.	.	.
=15	=15	=15	=15	=15	=15	=15	=15	=15	=15
1r	.	2F	-crum	4d	.	4A]	.	2dd	sa-
.	.	.	.	4c	.	4G	-vi-	.	.
.	.	2E	con-	1c	.	2G	-um,	2ee	-crum
2r	.	2D	-vi-	.	.	1d	o	1ff	con-
2F	[o	2D	-vi-	2BnXi	.	.	.	.	.
=16	=16	=16	=16	=16	=16	=16	=16	=16	=16
2G	sa-	1C	-um,]	4c	.	2G	sa-	2.ee	-vi-
.	.	.	.	4d	.	.	.	.	.
1c	-crum	.	.	4e	.	2g	.	.	.
.	.	.	.	4f	.	.	.	4dd	.
.	.	1r	.	2g	.	2e	.	4ee	.
.	.	.	.	.	.	.	.	4cc	.
2d	con-	.	.	[2f	.	[2d	-crum	4ff	.
.	.	.	.	.	.	.	.	4ee	.
=17	=17	=17	=17	=17	=17	=17	=17	=17	=17
2B-y	-vi-	1r	.	2f]	.	2d]	.	4dd	.
.	.	.	.	.	.	.	.	4cc	.
2c	-vi-	.	.	2e	.	2g	con-	1cc	.
1G	-um,]	2r	.	1d	-vi-	2g	-vi-	.	.
.	.	2G	in	.	.	2g	-vi-	2bnXi	-vi-
=18	=18	=18	=18	=18	=18	=18	=18	=18	=18
1r	.	2A	quo	1c	.	4e	-um,]	0cc	-um,]
.	.	.	.	.	.	4d	.	.	.
.	.	2.c	Chri-	.	.	4e	.	.	.
.	.	.	.	.	.	4f	.	.	.
2r	.	.	.	[1c	-um,	4g	.	.	.
.	.	4B-y	.	.	.	4e	.	.	.
4F	[con-	4A	.	.	.	[2a	.	.	.
4G	.	4G	.	.	.	.	.	.	.
=19	=19	=19	=19	=19	=19	=19	=19	=19	=19
4A	.	2F	.	0c_	.	2a]	.	0r	.
4B-y	.	.	.	.	.	.	.	.	.
2c	.	2E	-stus	.	.	2.g	in	.	.
2.A	-vi-	2F	su-	.	.	.	.	.	.
.	.	.	.	.	.	4f	.	.	.
.	.	2F	-mi-	.	.	[2f	quo	.	.
8GL	.	.	.	.	.	.	.	.	.
8FJ	.	.	.	.	.	.	.	.	.
=20	=20	=20	=20	=20	=20	=20	=20	=20	=20
2G	.	1C	-tur,	1c]	.	2f]	.	1cc	in
2G	-vi-	.	.	.	.	2e	.	.	.
1F	-um,]	1r	.	1r	.	2f	Chri-	2.a	quo
.	.	.	.	.	.	2f	-stus	.	.
.	.	.	.	.	.	.	.	4g	.
=21	=21	=21	=21	=21	=21	=21	=21	=21	=21
0r	.	0r	.	0r	.	2.d	su-	2a	.
.	.	.	.	.	.	.	.	1b-y	Chri-
.	.	.	.	.	.	4c	.	.	.
.	.	.	.	.	.	2d	.	.	.
.	.	.	.	.	.	[2e	.	4a	.
.	.	.	.	.	.	.	.	4g	.
=22	=22	=22	=22	=22	=22	=22	=22	=22	=22
0r	.	1r	.	1c	in	2e]	.	1g	-stus
.	.	.	.	.	.	4d	.	.	.
.	.	.	.	.	.	4c	.	.	.
.	.	1F	[in	2.A	quo	1c	.	[1a	su-
.	.	.	.	4G	.	.	.	.	.
=23	=23	=23	=23	=23	=23	=23	=23	=23	=23
0r	.	2.D	quo	2A	.	1.d	-mi-	2a]	.
.	.	.	.	1B-y	Chri-	.	.	2f	-mi-
.	.	4C	.	.	.	.	.	.	.
.	.	2D	.	.	.	.	.	2f	-tur,
.	.	[2E-X	Chri-	4A	.	[2B-y	.	[2g	in
.	.	.	.	4G	.	.	.	.	.
=24	=24	=24	=24	=24	=24	=24	=24	=24	=24
1r	.	2E-]	.	1G	-stus	2B-]	.	2g]	.
.	.	4D	.	.	.	2.c	-tur,	2.e	quo
.	.	4C	.	.	.	.	.	.	.
1c	in	1C	-stus	2r	.	.	.	.	.
.	.	.	.	.	.	4B-y	.	4d	.
.	.	.	.	[2A	su-	4A	.	2e	.
.	.	.	.	.	.	4G	.	.	.
=25	=25	=25	=25	=25	=25	=25	=25	=25	=25
2.A	quo	1.D	su-	2A]	.	1F	.	1.f	Chri-
.	.	.	.	2F	-mi-	.	.	.	.
4G	.	.	.	.	.	.	.	.	.
2A	.	.	.	2F	-tur,	1f	[in	.	.
[2B-y	Chri-	2BB-y	-mi-	2f	in	.	.	[2d	.
=26	=26	=26	=26	=26	=26	=26	=26	=26	=26
2B-]	.	1BB-y	-tur,]	2.d	quo	1f	quo	2d]	.
4A	.	.	.	.	.	.	.	2.dd	.
4G	.	.	.	4c	.	.	.	.	.
2.G	-stus	1r	.	2d	.	[1g	Chri-	.	.
.	.	.	.	.	.	.	.	4cc	.
.	.	.	.	[2e-X	Chri-	.	.	4b-y	.
4F	.	.	.	.	.	.	.	4a	.
=27	=27	=27	=27	=27	=27	=27	=27	=27	=27
2G	.	0r	.	2e-]	.	2g]	.	2b-y	.
2.A	su-	.	.	4d	.	1e	-stus	2.cc	.
.	.	.	.	4c	.	.	.	.	.
.	.	.	.	1c	-stus	.	.	.	.
4G	.	.	.	.	.	.	.	4b-y	.
4F	.	.	.	.	.	[2f	su-	4a	.
4E	.	.	.	.	.	.	.	4g	.
=28	=28	=28	=28	=28	=28	=28	=28	=28	=28
2D	.	0r	.	2.d	su-	2f]	.	2f	.
2.G	.	.	.	.	.	1d	.	2.b-y	.
.	.	.	.	4c	.	.	.	.	.
.	.	.	.	2B-y	.	.	.	.	.
4F	.	.	.	.	.	.	.	4a	.
4E	.	.	.	[2c	.	[2e-X	.	4g	.
4D	.	.	.	.	.	.	.	4f	.
=29	=29	=29	=29	=29	=29	=29	=29	=29	=29
2E	.	2r	.	4c]	.	2e-]	.	2g	.
.	.	.	.	4B-y	.	.	.	.	.
2F	.	2F	[in	2A	.	2c	-mi-	1f	.
1C	-mi-	2G	quo	1G	.	1c	-tur,	.	.
.	.	[2c	Chri-	.	.	.	.	2e	.
=30	=30	=30	=30	=30	=30	=30	=30	=30	=30
1F	-tur,	4c]	.	2.F	.	2.c	in	2f	-stus
.	.	4B-y	.	.	.	.	.	.	.
.	.	4A	.	.	.	.	.	2cc	su-
.	.	4G	.	4G	.	4B-y	.	.	.
1r	.	2F	.	4A	.	2A	.	2dd	.
.	.	.	.	4B-y	.	.	.	.	.
.	.	2E	-stus	[2c	.	2G	quo	2ee	.
=31	=31	=31	=31	=31	=31	=31	=31	=31	=31
2r	.	2D	su-	2c]	.	1d	Chri-	1ff	-mi-
2F	in	2D	-mi-	2BnXi	-mi-	.	.	.	.
2G	quo	1C	-tur,	1c	-tur,	1G	-stus	[1ee	-tur,
[2c	Chri-	.	.	.	.	.	.	.	.
=32	=32	=32	=32	=32	=32	=32	=32	=32	=32
4c]	.	2.c	in	2.A	su-	2A	su-	1ee]	.
4B-y	.	.	.	.	.	.	.	.	.
4A	.	.	.	.	.	2.c	.	.	.
4G	.	4B-y	.	4B-y	.	.	.	.	.
2F	.	2A	quo	4c	.	.	.	1r	.
.	.	.	.	4A	.	4B-y	.	.	.
2E	-stus	[2G	Chri-	2B-y	.	2G	.	.	.
=33	=33	=33	=33	=33	=33	=33	=33	=33	=33
2D	su-	4G]	.	1F	-mi-	2A	.	1r	.
.	.	4F	.	.	.	.	.	.	.
2D	-mi-	1F	-stus	.	.	2B-y	.	.	.
1C	-tur:	.	.	1G	.	1c	-mi-	2r	.
.	.	2E	su-	.	.	.	.	2g	[in
=34	=34	=34	=34	=34	=34	=34	=34	=34	=34
2r	.	2.F	.	1F	-tur,	0c	-tur,]	2a	quo
2F	re-	.	.	.	.	.	.	2.cc	Chri-
.	.	8EL	.	.	.	.	.	.	.
.	.	8DJ	.	.	.	.	.	.	.
2G	-co-	2E	.	2r	.	.	.	.	.
.	.	.	.	.	.	.	.	4b-y	.
2A	.	2F	-mi-	2c	[in	.	.	4a	.
.	.	.	.	.	.	.	.	4g	.
=35	=35	=35	=35	=35	=35	=35	=35	=35	=35
1.B-y	.	0BB-y	-tur,]	2d	quo	2r	.	1f	-stus
.	.	.	.	2.f	Chri-	2d	in	.	.
.	.	.	.	.	.	2d	quo	2.b-y	su-
.	.	.	.	4e	.	.	.	.	.
2BB-y	.	.	.	4d	.	2f	Chri-	.	.
.	.	.	.	4c	.	.	.	4a	.
=36	=36	=36	=36	=36	=36	=36	=36	=36	=36
2E-X	.	1r	.	2B-y	.	2e-X	-stus	4g	.
.	.	.	.	.	.	.	.	4f	.
2F	.	.	.	2A	-stus	1c	su-	1f	.
1C	-li-	2r	.	2G	su-	.	.	.	.
.	.	2G	[in	2G	-mi-	2c	-mi-	2e	-mi-
=37	=37	=37	=37	=37	=37	=37	=37	=37	=37
1F	-tur,	2A	quo	1F	-tur:]	4c	-tur:	0f	-tur:]
.	.	.	.	.	.	4B-y	.	.	.
.	.	2.c	Chri-	.	.	8cL	.	.	.
.	.	.	.	.	.	8B-y	.	.	.
.	.	.	.	.	.	8A	.	.	.
.	.	.	.	.	.	8GJ	.	.	.
2.c	[re-	.	.	2r	.	1A	.	.	.
.	.	4B-y	.	.	.	.	.	.	.
.	.	4A	.	2c	re-	.	.	.	.
4B-y	.	4G	.	.	.	.	.	.	.
=38	=38	=38	=38	=38	=38	=38	=38	=38	=38
2A	.	2F	.	2d	-co-	2r	.	1r	.
2G	-co-	2E	-stus	2e	.	2c	re-	.	.
1d	-li-	2D	su-	2f	.	4f	-co-	1a	re-
.	.	.	.	.	.	4e	.	.	.
.	.	2D	-mi-	2d	-li-	4f	.	.	.
.	.	.	.	.	.	4g	.	.	.
=39	=39	=39	=39	=39	=39	=39	=39	=39	=39
1c	-tur]	1A	-tur:]	1e	-tur,	2.a	.	2.cc	-co-
.	.	.	.	.	.	8gL	.	4dd	.
.	.	.	.	.	.	8fJ	.	.	.
1r	.	1r	.	1r	.	2g	.	4ee	.
.	.	.	.	.	.	.	.	4cc	.
.	.	.	.	.	.	[2a	.	[2ff	.
=40	=40	=40	=40	=40	=40	=40	=40	=40	=40
0r	.	0r	.	0r	.	4a]	.	4ff]	.
.	.	.	.	.	.	4g	.	4ee	.
.	.	.	.	.	.	2f	.	1dd	.
.	.	.	.	.	.	2e	.	.	.
.	.	.	.	.	.	2e	-li-	2cc#i	-li-
=41	=41	=41	=41	=41	=41	=41	=41	=41	=41
0r	.	1D	re-	1r	.	1d	-tur	1dd	-tur
.	.	4F	-co-	1A	[re-	1r	.	1r	.
.	.	4E	.	.	.	.	.	.	.
.	.	4F	.	.	.	.	.	.	.
.	.	4G	.	.	.	.	.	.	.
=42	=42	=42	=42	=42	=42	=42	=42	=42	=42
0r	.	2.A	.	2.c	-co-	1r	.	0r	.
.	.	8GL	.	4d	.	.	.	.	.
.	.	8FJ	.	.	.	.	.	.	.
.	.	2G	.	4e	.	2r	.	.	.
.	.	.	.	4c	.	.	.	.	.
.	.	[2A	.	[2f	.	2a	me-	.	.
=43	=43	=43	=43	=43	=43	=43	=43	=43	=43
0r	.	4A]	.	4f]	.	2a	-mo-	0r	.
.	.	4G	.	4e	.	.	.	.	.
.	.	2F	.	1d	.	2a	-ri-	.	.
.	.	1E	-li-	.	.	4g	-a	.	.
.	.	.	.	.	.	4f	.	.	.
.	.	.	.	2c#i	-li-	4g	.	.	.
.	.	.	.	.	.	4a	.	.	.
=44	=44	=44	=44	=44	=44	=44	=44	=44	=44
0r	.	0D	-tur	0d	-tur]	2b-y	.	2r	.
.	.	.	.	.	.	1a	pas-	2dd	me-
.	.	.	.	.	.	.	.	2dd	-mo-
.	.	.	.	.	.	2d	-si-	2dd	-ri-
=45	=45	=45	=45	=45	=45	=45	=45	=45	=45
1r	.	0r	.	0r	.	2f	-o-	4cc	-a
.	.	.	.	.	.	.	.	4b-y	.
.	.	.	.	.	.	2e	-nis	4cc	.
.	.	.	.	.	.	.	.	4dd	.
2r	.	.	.	.	.	1g	e-	2ee	.
2G	me-	.	.	.	.	.	.	[2dd	.
=46	=46	=46	=46	=46	=46	=46	=46	=46	=46
2G	-mo-	0r	.	2r	.	2.d	-ius,	2dd]	.
2G	-ri-	.	.	2d	me-	.	.	4cc	.
.	.	.	.	.	.	4e	.	4b-y	.
4F	-a	.	.	2d	-mo-	1f	.	1a	.
4E	.	.	.	.	.	.	.	.	.
4F	.	.	.	2d	-ri-	.	.	.	.
4G	.	.	.	.	.	.	.	.	.
=47	=47	=47	=47	=47	=47	=47	=47	=47	=47
2A	.	0r	.	2c	-a	2r	.	2r	.
1B-y	pas-	.	.	1f	pas-	1b-y	[pas-	1dd	pas-
2F	-si-	.	.	2f	-si-	2a	-si-	2cc	-si-
=48	=48	=48	=48	=48	=48	=48	=48	=48	=48
2G	-o-	1r	.	2d	-o-	2g	-o-	2b-y	-o-
2D	-nis	.	.	2d	-nis	2f	-nis	2a	-nis
[1E-X	e-	2r	.	[1B-y	e-	[1e-X	e-	2.g	e-
.	.	2G	me-	.	.	.	.	.	.
.	.	.	.	.	.	.	.	4a	.
=49	=49	=49	=49	=49	=49	=49	=49	=49	=49
1E-]	.	2G	-mo-	1B-]	.	1e-]	.	2b-y	.
.	.	2G	-ri-	.	.	.	.	2g	.
1BB-y	-ius,	4F	-a	1B-y	-ius,	1d	-ius,]	1dd	-ius,
.	.	4E	.	.	.	.	.	.	.
.	.	4F	.	.	.	.	.	.	.
.	.	4G	.	.	.	.	.	.	.
=50	=50	=50	=50	=50	=50	=50	=50	=50	=50
0r	.	2A	.	2r	.	2r	.	2r	.
.	.	1B-y	pas-	1d	pas-	1f	[pas-	1b-y	pas-
.	.	2F	-si-	2c	-si-	2f	-si-	2a	-si-
=51	=51	=51	=51	=51	=51	=51	=51	=51	=51
0r	.	2G	-o-	2B-y	-o-	2d	-o-	2g	-o-
.	.	2D	-nis	2A	-nis	2d	-nis	2f	-nis
.	.	[1E-X	e-	[1G	e-	1B-y	e-	[1b-y	e-
=52	=52	=52	=52	=52	=52	=52	=52	=52	=52
0r	.	1E-]	.	1G]	.	1e-i	.	2b-]	.
.	.	.	.	.	.	.	.	8b-yL	-ius.
.	.	.	.	.	.	.	.	8aJ	.
.	.	.	.	.	.	.	.	8b-yL	.
.	.	.	.	.	.	.	.	8ccJ	.
.	.	[1BB-y	-ius.	[1F	-ius,	2d	.	[1dd	.
.	.	.	.	.	.	4B-y	.	.	.
.	.	.	.	.	.	4c	.	.	.
=53	=53	=53	=53	=53	=53	=53	=53	=53	=53
1r	.	0BB-_	.	1F]	.	4d	.	1dd]	.
.	.	.	.	.	.	4e	.	.	.
.	.	.	.	.	.	2.f	.	.	.
2r	.	.	.	[1d	[pas-	.	.	[1ff	Mens
.	.	.	.	.	.	4e	.	.	.
[2B-y	pas-	.	.	.	.	4d	.	.	.
.	.	.	.	.	.	4c	.	.	.
=54	=54	=54	=54	=54	=54	=54	=54	=54	=54
2B-]	.	1BB-]	.	2d]	.	2.B-y	.	1ff]	.
2F	-si-	.	.	2c	-si-	.	.	.	.
.	.	.	.	.	.	4A	.	.	.
2G	-o-	1r	.	2B-y	-o-	4B-y	.	1dd	im-
.	.	.	.	.	.	4c	.	.	.
2F	-nis	.	.	2A	-nis	[2d	.	.	.
=55	=55	=55	=55	=55	=55	=55	=55	=55	=55
1E	e-	0r	.	1G	e-	2d]	.	1ee	.
.	.	.	.	.	.	2c#i	.	.	.
1D	-ius.	.	.	1A	-ius.]	4d	.	2.ff	-ple-
.	.	.	.	.	.	4e	.	.	.
.	.	.	.	.	.	4f	.	.	.
.	.	.	.	.	.	4g	.	4ee	.
=56	=56	=56	=56	=56	=56	=56	=56	=56	=56
0r	.	0r	.	0r	.	4a	.	4ff	.
.	.	.	.	.	.	4b-y	.	4ee	.
.	.	.	.	.	.	1cc	.	4dd	.
.	.	.	.	.	.	.	.	4cc	.
.	.	.	.	.	.	.	.	1dd	.
.	.	.	.	.	.	2bnXi	.	.	.
=57	=57	=57	=57	=57	=57	=57	=57	=57	=57
1.F	Mens	0r	.	0f	Mens	1cc	-ius.]	1cc	-tur
.	.	.	.	.	.	2r	.	1a	gra-
2D	im-	.	.	.	.	2f	Mens	.	.
=58	=58	=58	=58	=58	=58	=58	=58	=58	=58
1G	-ple-	0r	.	1d	im-	0g	im-	1b-y	-ti-
1C	-tur	.	.	1e	.	.	.	[1cc	-a,
=59	=59	=59	=59	=59	=59	=59	=59	=59	=59
4F	gra-	0F	Mens	1.f	-ple-	0a	-ple-	0cc]	.
4E	.	.	.	.	.	.	.	.	.
4F	.	.	.	.	.	.	.	.	.
4G	.	.	.	.	.	.	.	.	.
4A	.	.	.	.	.	.	.	.	.
4B-y	.	.	.	.	.	.	.	.	.
[2c	.	.	.	2e	.	.	.	.	.
=60	=60	=60	=60	=60	=60	=60	=60	=60	=60
2c]	.	1G	im-	1d	.	1g	-tur,	0r	.
2BnXi	-ti-	.	.	.	.	.	.	.	.
1c	-a,	2.A	-ple-	1c	-tur	1r	.	.	.
.	.	4G	.	.	.	.	.	.	.
=61	=61	=61	=61	=61	=61	=61	=61	=61	=61
1r	.	2F	.	1A	gra-	1c	mens	0r	.
.	.	2E	.	.	.	.	.	.	.
1F	[mens	1D	-tur	1B-y	-ti-	1d	im-	.	.
=62	=62	=62	=62	=62	=62	=62	=62	=62	=62
1G	im-	1C	gra-	[0c	-a,	1e	-ple-	1r	.
2.A	-ple-	4F	-ti-	.	.	1c	-tur,	[1cc	[mens
.	.	4E	.	.	.	.	.	.	.
.	.	4F	.	.	.	.	.	.	.
4G	.	4G	.	.	.	.	.	.	.
=63	=63	=63	=63	=63	=63	=63	=63	=63	=63
2F	-tur	4A	.	1c]	.	0f	[mens	1cc]	.
.	.	4B-y	.	.	.	.	.	.	.
2E	gra-	2.c	.	.	.	.	.	.	.
1D	-ti-	.	.	1r	.	.	.	1dd	im-
.	.	4B-y	.	.	.	.	.	.	.
.	.	4B-y	.	.	.	.	.	.	.
.	.	8AL	.	.	.	.	.	.	.
.	.	8B-yJ	.	.	.	.	.	.	.
=64	=64	=64	=64	=64	=64	=64	=64	=64	=64
1C	-a,]	1c	-a,	0c	[mens	1g	im-	1ee	-ple-
1r	.	[1F	mens	.	.	1a	-ple-	1cc	-tur,]
=65	=65	=65	=65	=65	=65	=65	=65	=65	=65
1D	et	1F]	.	1d	im-	1f	-tur]	2r	.
.	.	.	.	.	.	.	.	2dd	[im-
1C	fu-	1G	im-	1e	-ple-	2.cc	gra-	1gg	-ple-
.	.	.	.	.	.	4cc	-ti-	.	.
=66	=66	=66	=66	=66	=66	=66	=66	=66	=66
1.F	-tu-	2.A	-ple-	2c	.	1a	-a,	2.ff	-tur
.	.	.	.	2.f	.	.	.	.	.
.	.	4G	.	.	.	.	.	4ee	.
.	.	2F	.	.	.	1r	.	2dd	.
.	.	.	.	4d	.	.	.	.	.
2C	-rae	2E	.	[2g	.	.	.	[2cc	gra-
=67	=67	=67	=67	=67	=67	=67	=67	=67	=67
1F	glo-	1D	-tur	4g]	.	0r	.	2cc]	.
.	.	.	.	4f	.	.	.	.	.
.	.	.	.	1f	.	.	.	2bnXi	-ti-
1G	-ri-	1C	gra-	.	.	.	.	[1cc	-a,]
.	.	.	.	2e	-tur	.	.	.	.
=68	=68	=68	=68	=68	=68	=68	=68	=68	=68
1A	-ae,	0F	-ti-	0f	gra-	2r	.	0cc]	.
.	.	.	.	.	.	1a	et	.	.
[1c	[et	.	.	.	.	.	.	.	.
.	.	.	.	.	.	2a	fu-	.	.
=69	=69	=69	=69	=69	=69	=69	=69	=69	=69
1c]	.	0G	.	0d	-ti-	1g	-tu-	0r	.
1B-y	fu-	.	.	.	.	1g	-rae	.	.
=70	=70	=70	=70	=70	=70	=70	=70	=70	=70
1.c	-tu-	0C	-a,	0e	-a,	1.g	glo-	0r	.
2B-y	.	.	.	.	.	2g	-ri-	.	.
=71	=71	=71	=71	=71	=71	=71	=71	=71	=71
2A	.	0c	et	1r	.	0a	-ae	0r	.
2G	-rae	.	.	.	.	.	.	.	.
2F	glo-	.	.	[1f	et	.	.	.	.
2E	.	.	.	.	.	.	.	.	.
=72	=72	=72	=72	=72	=72	=72	=72	=72	=72
1D	.	1B-y	fu-	1f]	.	0r	.	0r	.
1C	.	[1c	-tu-	1e	fu-	.	.	.	.
=73	=73	=73	=73	=73	=73	=73	=73	=73	=73
1.F	.	2c]	.	1.f	-tu-	0r	.	0r	.
.	.	2B-y	.	.	.	.	.	.	.
.	.	2A	.	.	.	.	.	.	.
2G	.	2G	-rae	2e	.	.	.	.	.
=74	=74	=74	=74	=74	=74	=74	=74	=74	=74
2.A	.	2F	glo-	2d	.	0r	.	0ff	et
.	.	2E	.	1c	.	.	.	.	.
4A	-ri-	.	.	.	.	.	.	.	.
1F	-ae]	1D	-ri-	.	.	.	.	.	.
.	.	.	.	2BnXi	.	.	.	.	.
=75	=75	=75	=75	=75	=75	=75	=75	=75	=75
1G	.	1C	-ae	2c	-rae	0r	.	1ee	fu-
.	.	.	.	2g	glo-	.	.	.	.
1A	.	1F	.	2f	.	.	.	[1ff	-tu-
.	.	.	.	[2a	.	.	.	.	.
=76	=76	=76	=76	=76	=76	=76	=76	=76	=76
0r	.	0r	.	2a]	.	1r	.	2ff]	.
.	.	.	.	2g	.	.	.	2ee	.
.	.	.	.	2f	.	2r	.	2dd	.
.	.	.	.	2e	.	2c	no-	2cc	-rae
=77	=77	=77	=77	=77	=77	=77	=77	=77	=77
1r	.	1r	.	1d	-ri-	2d	-bis	2cc	glo-
.	.	.	.	.	.	1f	pi-	2bnXi	-ri-
2r	.	1C	no-	1c	-ae	.	.	1cc	-ae
2G	no-	.	.	.	.	2e	-gnus	.	.
=78	=78	=78	=78	=78	=78	=78	=78	=78	=78
2F	-bis	2D	-bis	1r	.	1d	da-	2r	.
1A	pi-	1F	pi-	.	.	.	.	2f	no-
.	.	.	.	2r	.	1c	-tur,	2a	-bis
2G	-gnus	2E	-gnus	2c	no-	.	.	[2cc	pi-
=79	=79	=79	=79	=79	=79	=79	=79	=79	=79
1F	da-	1D	da-	2d	-bis	2r	.	2cc]	.
.	.	.	.	1f	pi-	2F	no-	2b-y	.
2c	-tur,	1C	-tur,	.	.	2A	-bis	2a	.
4r	.	.	.	2e	-gnus	2c	pi-	2g	-gnus
4C	[no-	.	.	.	.	.	.	.	.
=80	=80	=80	=80	=80	=80	=80	=80	=80	=80
2D	-bis	2r	.	1d	da-	2B-y	-gnus	1r	.
1F	pi-	2F	no-	.	.	1A	da-	.	.
.	.	2A	-bis	1c	-tur,	.	.	2r	.
2E	-gnus	[2c	pi-	.	.	2G	.	2cc	da-
=81	=81	=81	=81	=81	=81	=81	=81	=81	=81
1D	da-	4c]	.	2r	.	1d	-tur,	2dd	-tur,
.	.	4BnXi	-gnus	.	.	.	.	.	.
.	.	4Bni	.	2F	[no-	.	.	1ff	no-
.	.	8AL	.	.	.	.	.	.	.
.	.	8BniJ	.	.	.	.	.	.	.
1C	-tur.]	2c	.	2G	-bis	1r	.	.	.
.	.	2C	da-	2c	pi-	.	.	2ee	-bis
=82	=82	=82	=82	=82	=82	=82	=82	=82	=82
0r	.	2D	.	2B-y	-gnus	2r	.	2dd	pi-
.	.	1F	.	2.A	da-	1c	no-	4cc	.
.	.	.	.	.	.	.	.	4b-y	.
.	.	.	.	.	.	.	.	4a	.
.	.	.	.	4B-y	.	.	.	4f	.
.	.	2E	.	4c	.	2c	-bis	[2g	.
.	.	.	.	4A	.	.	.	.	.
=83	=83	=83	=83	=83	=83	=83	=83	=83	=83
1r	.	1D	.	4B-y	.	2d	pi-	4g]	.
.	.	.	.	4A	.	.	.	4f	.
.	.	.	.	4G	.	2B-y	-gnus	1f	-gnus
.	.	.	.	4F	.	.	.	.	.
2r	.	1C	.	1G	.	1c	da-	.	.
2c	Al-	.	.	.	.	.	.	2e	da-
=84	=84	=84	=84	=84	=84	=84	=84	=84	=84
2c	-le-	1F	-tur.	1F	-tur.]	2A	-tur.	1f	-tur.
2c	-lu-	.	.	.	.	2f	Al-	.	.
=-	=-	=-	=-	=-	=-	=-	=-	=-	=-
*M3/3%2	*	*	*	*	*	*	*	*	*
*met(3)	*	*	*	*	*	*	*	*	*
*Xtuplet	*	*	*	*	*	*	*	*	*
3.A	-ia,	1r	.	1r	.	2f	-le-	2r	.
6B-y	.	.	.	.	.	2e	-lu-	2cc	Al-
3c	.	.	.	.	.	.	.	.	.
=85	=85	=85	=85	=85	=85	=85	=85	=85	=85
*tuplet	*	*	*	*	*	*	*	*	*
*M2/1	*	*	*	*	*	*	*	*	*
*met(C|)	*	*	*	*	*	*	*	*	*
1G	.	1r	.	0r	.	4d	-ia,	2cc	-le-
.	.	.	.	.	.	4c	.	.	.
.	.	.	.	.	.	4d	.	2b-y	-lu-
.	.	.	.	.	.	4e	.	.	.
1F	.	2r	.	.	.	2.f	.	4a	-ia,
.	.	.	.	.	.	.	.	4g	.
.	.	2F	Al-	.	.	.	.	4a	.
.	.	.	.	.	.	8eL	.	4b-y	.
.	.	.	.	.	.	8dJ	.	.	.
=86	=86	=86	=86	=86	=86	=86	=86	=86	=86
0r	.	2F	-le-	2r	.	4c	.	1cc	.
.	.	.	.	.	.	4d	.	.	.
.	.	2E	-lu-	2c	Al-	4e	.	.	.
.	.	.	.	.	.	4c	.	.	.
.	.	4D	-ia,	2c	-le-	1d	.	1r	.
.	.	4C	.	.	.	.	.	.	.
.	.	4D	.	2B-y	-lu-	.	.	.	.
.	.	4E	.	.	.	.	.	.	.
=87	=87	=87	=87	=87	=87	=87	=87	=87	=87
2r	.	1F	.	4A	-ia,	1c	.	2r	.
.	.	.	.	4G	.	.	.	.	.
2F	al-	.	.	4A	.	.	.	2a	al-
.	.	.	.	4B-y	.	.	.	.	.
2F	-le-	1r	.	2c	.	2r	.	2a	-le-
2E	-lu-	.	.	4r	.	2c	al-	2g	.
.	.	.	.	4c	al-	.	.	.	.
=88	=88	=88	=88	=88	=88	=88	=88	=88	=88
4D	-ia,	1r	.	2c	-le-	1d	.	4f	.
4C	.	.	.	.	.	.	.	4e	.
4D	.	.	.	2B-y	.	.	.	4f	.
4E	.	.	.	.	.	.	.	4g	.
1F	.	2r	.	4A	.	2c	.	2.a	.
.	.	.	.	4G	.	.	.	.	.
.	.	2F	al-	4A	.	[2c	-le-	.	.
.	.	.	.	4B-y	.	.	.	8gL	.
.	.	.	.	.	.	.	.	8fJ	.
=89	=89	=89	=89	=89	=89	=89	=89	=89	=89
1r	.	2C	-le-	2c	.	4c]	.	2e	.
.	.	.	.	.	.	4B-y	.	.	.
.	.	2D	-lu-	2F	.	4B-y	.	1f	.
.	.	.	.	.	.	8AL	.	.	.
.	.	.	.	.	.	8B-yJ	.	.	.
2r	.	1C	-ia,	1G	-lu-	1c	-lu-	.	.
2c	al-	.	.	.	.	.	.	2e	-lu-
=90	=90	=90	=90	=90	=90	=90	=90	=90	=90
2c	-le-	2r	.	[0F	-ia.	1A	-ia,	[0fl	-ia.
2c	-lu-	2c	al-	.	.	.	.	.	.
4A	-ia,	2c	-le-	.	.	2r	.	.	.
4G	.	.	.	.	.	.	.	.	.
4A	.	2c	-lu-	.	.	2c	al-	.	.
4B-y	.	.	.	.	.	.	.	.	.
=91	=91	=91	=91	=91	=91	=91	=91	=91	=91
2c	.	4A	-ia,	0F]	.	2c	-le-	0f_	.
.	.	4G	.	.	.	.	.	.	.
2F	al-	4A	.	.	.	2c	-lu-	.	.
.	.	4B-y	.	.	.	.	.	.	.
2F	-le-	2c	.	.	.	2A	-ia,	.	.
2F	-lu-	2F	al-	.	.	2A	al-	.	.
=92	=92	=92	=92	=92	=92	=92	=92	=92	=92
4D	-ia,	2F	-le-	0r	.	0d	-le-	0f_	.
4C	.	.	.	.	.	.	.	.	.
4D	.	2F	-lu-	.	.	.	.	.	.
4E	.	.	.	.	.	.	.	.	.
2F	.	4D	-ia,	.	.	.	.	.	.
.	.	4C	.	.	.	.	.	.	.
2BB-y	al-	4D	.	.	.	.	.	.	.
.	.	4E	.	.	.	.	.	.	.
=93	=93	=93	=93	=93	=93	=93	=93	=93	=93
2BB-y	-le-	4F	.	0r	.	1c	-lu-	0f_	.
.	.	4G	.	.	.	.	.	.	.
2AA	-lu-	2A	.	.	.	.	.	.	.
4BB-y	-ia.	2D	al-	.	.	2B-y	-ia,	.	.
4AA	.	.	.	.	.	.	.	.	.
4BB-y	.	[2B-y	-le-	.	.	[2d	al-	.	.
4C	.	.	.	.	.	.	.	.	.
=94	=94	=94	=94	=94	=94	=94	=94	=94	=94
1D	.	2B-]	.	0r	.	2d]	.	0f_	.
.	.	2A	.	.	.	2d	-le-	.	.
1BB-y	.	1B-y	-lu-	.	.	1d	-lu-	.	.
=95	=95	=95	=95	=95	=95	=95	=95	=95	=95
00Fl	.	00Al	-ia.	00cl	-ia.	00cl	-ia.	00f]	.
==	==	==	==	==	==	==	==	==	==
*-	*-	*-	*-	*-	*-	*-	*-	*-	*-
!!!system-decoration: [*]
!!!RDF**kern: i = editorial accidental
!!!RDF**kern: l = terminal long
!!!!PTL: <i> New Senfl Edition: Motets for Five Voices</i>
!!!PPR: Hollitzer Verlag
!!!PC#: Denkmäler der Tonkunst in Österreich 163.3
!!!PDT: 2022
!!!PED: Scott Lee Edwards, Stefan Gasch, and Sonja Tröster
!!!YEC: Copyright 2022 Denkmäler der Tonkunst in Österreich
!!!YEM: CC-BY-NC 4.0 (https://creativecommons.org/licenses/by-nc/4.0/legalcode)
!!!EED: Benjamin Ory
!!!EEV: 2024/12/6
!!!verovio: header encoded
!!!header-left: @{PTL}\n@{PED}, eds.\n@{PC#} (@{PDT})&nbsp;\n
!!!header-right:
!!!header-center: